images/3233609.svg

<?xml version="1.0" encoding="UTF-8"?>
<svg xmlns="http://www.w3.org/2000/svg" xmlns:xlink="http://www.w3.org/1999/xlink" width="300pt" height="300pt" viewBox="0 0 300 300" version="1.1">
<defs>
<g>
<symbol overflow="visible" id="glyph0-0">
<path style="stroke:none;" d="M 0.453125 1.59375 L 0.453125 -6.34375 L 4.953125 -6.34375 L 4.953125 1.59375 Z M 0.953125 1.09375 L 4.453125 1.09375 L 4.453125 -5.84375 L 0.953125 -5.84375 Z M 0.953125 1.09375 "/>
</symbol>
<symbol overflow="visible" id="glyph0-1">
<path style="stroke:none;" d="M 0.890625 -6.5625 L 2.078125 -6.5625 L 4.984375 -1.078125 L 4.984375 -6.5625 L 5.84375 -6.5625 L 5.84375 0 L 4.65625 0 L 1.75 -5.484375 L 1.75 0 L 0.890625 0 Z M 0.890625 -6.5625 "/>
</symbol>
<symbol overflow="visible" id="glyph0-2">
<path style="stroke:none;" d="M 3.546875 -5.953125 C 2.898438 -5.953125 2.382812 -5.710938 2 -5.234375 C 1.625 -4.753906 1.4375 -4.101562 1.4375 -3.28125 C 1.4375 -2.445312 1.625 -1.789062 2 -1.3125 C 2.382812 -0.832031 2.898438 -0.59375 3.546875 -0.59375 C 4.191406 -0.59375 4.703125 -0.832031 5.078125 -1.3125 C 5.453125 -1.789062 5.640625 -2.445312 5.640625 -3.28125 C 5.640625 -4.101562 5.453125 -4.753906 5.078125 -5.234375 C 4.703125 -5.710938 4.191406 -5.953125 3.546875 -5.953125 Z M 3.546875 -6.6875 C 4.460938 -6.6875 5.195312 -6.375 5.75 -5.75 C 6.300781 -5.132812 6.578125 -4.3125 6.578125 -3.28125 C 6.578125 -2.238281 6.300781 -1.410156 5.75 -0.796875 C 5.195312 -0.179688 4.460938 0.125 3.546875 0.125 C 2.617188 0.125 1.878906 -0.179688 1.328125 -0.796875 C 0.773438 -1.410156 0.5 -2.238281 0.5 -3.28125 C 0.5 -4.3125 0.773438 -5.132812 1.328125 -5.75 C 1.878906 -6.375 2.617188 -6.6875 3.546875 -6.6875 Z M 3.546875 -6.6875 "/>
</symbol>
<symbol overflow="visible" id="glyph0-3">
<path style="stroke:none;" d="M 0.890625 -6.5625 L 4.65625 -6.5625 L 4.65625 -5.8125 L 1.765625 -5.8125 L 1.765625 -3.875 L 4.375 -3.875 L 4.375 -3.140625 L 1.765625 -3.140625 L 1.765625 0 L 0.890625 0 Z M 0.890625 -6.5625 "/>
</symbol>
</g>
</defs>
<g id="surface31309">
<rect x="0" y="0" width="300" height="300" style="fill:rgb(100%,100%,100%);fill-opacity:1;stroke:none;"/>
<path style="fill:none;stroke-width:1.2;stroke-linecap:butt;stroke-linejoin:miter;stroke:rgb(0%,0%,0%);stroke-opacity:1;stroke-miterlimit:10;" d="M 164.515625 182.5 L 147.371094 189.363281 "/>
<path style="fill:none;stroke-width:1.2;stroke-linecap:butt;stroke-linejoin:miter;stroke:rgb(0%,0%,0%);stroke-opacity:1;stroke-miterlimit:10;" d="M 167.144531 164.21875 L 164.515625 182.5 "/>
<path style="fill:none;stroke-width:1.2;stroke-linecap:butt;stroke-linejoin:miter;stroke:rgb(0%,0%,0%);stroke-opacity:1;stroke-miterlimit:10;" d="M 147.371094 189.363281 L 140.113281 183.65625 "/>
<path style="fill:none;stroke-width:1.2;stroke-linecap:butt;stroke-linejoin:miter;stroke:rgb(0%,0%,100%);stroke-opacity:1;stroke-miterlimit:10;" d="M 140.113281 183.65625 L 132.855469 177.949219 "/>
<path style="fill:none;stroke-width:1.2;stroke-linecap:butt;stroke-linejoin:miter;stroke:rgb(0%,0%,100%);stroke-opacity:1;stroke-miterlimit:10;" d="M 132.855469 177.949219 L 134.171875 168.808594 "/>
<path style="fill:none;stroke-width:1.2;stroke-linecap:butt;stroke-linejoin:miter;stroke:rgb(0%,0%,0%);stroke-opacity:1;stroke-miterlimit:10;" d="M 134.171875 168.808594 L 135.484375 159.667969 "/>
<path style="fill:none;stroke-width:1.2;stroke-linecap:butt;stroke-linejoin:miter;stroke:rgb(0%,0%,100%);stroke-opacity:1;stroke-miterlimit:10;" d="M 132.855469 177.949219 L 124.285156 181.378906 "/>
<path style="fill:none;stroke-width:1.2;stroke-linecap:butt;stroke-linejoin:miter;stroke:rgb(0%,0%,0%);stroke-opacity:1;stroke-miterlimit:10;" d="M 124.285156 181.378906 L 115.714844 184.8125 "/>
<path style=" stroke:none;fill-rule:nonzero;fill:rgb(100%,100%,100%);fill-opacity:1;" d="M 129.855469 172.449219 L 136.855469 172.449219 L 136.855469 183.449219 L 129.855469 183.449219 Z M 129.855469 172.449219 "/>
<g style="fill:rgb(0%,0%,100%);fill-opacity:1;">
  <use xlink:href="#glyph0-1" x="129.855469" y="181.112305"/>
</g>
<path style="fill:none;stroke-width:1.2;stroke-linecap:butt;stroke-linejoin:miter;stroke:rgb(0%,0%,0%);stroke-opacity:1;stroke-miterlimit:10;" d="M 135.484375 159.667969 L 152.628906 152.804688 "/>
<path style="fill:none;stroke-width:1.2;stroke-linecap:butt;stroke-linejoin:miter;stroke:rgb(0%,0%,0%);stroke-opacity:1;stroke-miterlimit:10;" d="M 152.628906 152.804688 L 167.144531 164.21875 "/>
<path style="fill:none;stroke-width:1.2;stroke-linecap:butt;stroke-linejoin:miter;stroke:rgb(0%,0%,0%);stroke-opacity:1;stroke-miterlimit:10;" d="M 167.144531 164.21875 L 181.660156 175.632812 "/>
<path style="fill:none;stroke-width:1.2;stroke-linecap:butt;stroke-linejoin:miter;stroke:rgb(0%,0%,0%);stroke-opacity:1;stroke-miterlimit:10;" d="M 169.769531 145.941406 L 167.144531 164.21875 "/>
<path style="fill:none;stroke-width:1.2;stroke-linecap:butt;stroke-linejoin:miter;stroke:rgb(0%,0%,0%);stroke-opacity:1;stroke-miterlimit:10;" d="M 181.660156 175.632812 L 198.804688 168.769531 "/>
<path style="fill:none;stroke-width:1.2;stroke-linecap:butt;stroke-linejoin:miter;stroke:rgb(0%,0%,0%);stroke-opacity:1;stroke-miterlimit:10;" d="M 198.804688 168.769531 L 200.117188 159.632812 "/>
<path style="fill:none;stroke-width:1.2;stroke-linecap:butt;stroke-linejoin:miter;stroke:rgb(0%,0%,100%);stroke-opacity:1;stroke-miterlimit:10;" d="M 200.117188 159.632812 L 201.429688 150.492188 "/>
<path style="fill:none;stroke-width:1.2;stroke-linecap:butt;stroke-linejoin:miter;stroke:rgb(0%,0%,100%);stroke-opacity:1;stroke-miterlimit:10;" d="M 201.429688 150.492188 L 194.171875 144.785156 "/>
<path style="fill:none;stroke-width:1.2;stroke-linecap:butt;stroke-linejoin:miter;stroke:rgb(0%,0%,0%);stroke-opacity:1;stroke-miterlimit:10;" d="M 194.171875 144.785156 L 186.914062 139.078125 "/>
<path style="fill:none;stroke-width:1.2;stroke-linecap:butt;stroke-linejoin:miter;stroke:rgb(0%,0%,100%);stroke-opacity:1;stroke-miterlimit:10;" d="M 201.429688 150.492188 L 210.003906 147.058594 "/>
<path style="fill:none;stroke-width:1.2;stroke-linecap:butt;stroke-linejoin:miter;stroke:rgb(0%,0%,0%);stroke-opacity:1;stroke-miterlimit:10;" d="M 210.003906 147.058594 L 218.574219 143.628906 "/>
<path style=" stroke:none;fill-rule:nonzero;fill:rgb(100%,100%,100%);fill-opacity:1;" d="M 198.429688 144.992188 L 205.429688 144.992188 L 205.429688 155.992188 L 198.429688 155.992188 Z M 198.429688 144.992188 "/>
<g style="fill:rgb(0%,0%,100%);fill-opacity:1;">
  <use xlink:href="#glyph0-1" x="198.429688" y="153.655273"/>
</g>
<path style="fill:none;stroke-width:1.2;stroke-linecap:butt;stroke-linejoin:miter;stroke:rgb(0%,0%,0%);stroke-opacity:1;stroke-miterlimit:10;" d="M 186.914062 139.078125 L 169.769531 145.941406 "/>
<path style="fill:none;stroke-width:1.2;stroke-linecap:butt;stroke-linejoin:miter;stroke:rgb(0%,0%,0%);stroke-opacity:1;stroke-miterlimit:10;" d="M 220.722656 143.9375 L 222.039062 134.796875 "/>
<path style="fill:none;stroke-width:1.2;stroke-linecap:butt;stroke-linejoin:miter;stroke:rgb(100%,0%,0%);stroke-opacity:1;stroke-miterlimit:10;" d="M 222.039062 134.796875 L 223.351562 125.65625 "/>
<path style="fill:none;stroke-width:1.2;stroke-linecap:butt;stroke-linejoin:miter;stroke:rgb(0%,0%,0%);stroke-opacity:1;stroke-miterlimit:10;" d="M 216.421875 143.320312 L 217.738281 134.179688 "/>
<path style="fill:none;stroke-width:1.2;stroke-linecap:butt;stroke-linejoin:miter;stroke:rgb(100%,0%,0%);stroke-opacity:1;stroke-miterlimit:10;" d="M 217.738281 134.179688 L 219.050781 125.039062 "/>
<path style="fill:none;stroke-width:1.2;stroke-linecap:butt;stroke-linejoin:miter;stroke:rgb(0%,0%,0%);stroke-opacity:1;stroke-miterlimit:10;" d="M 218.574219 143.628906 L 233.089844 155.042969 "/>
<path style=" stroke:none;fill-rule:nonzero;fill:rgb(100%,100%,100%);fill-opacity:1;" d="M 217.203125 119.847656 L 225.203125 119.847656 L 225.203125 130.847656 L 217.203125 130.847656 Z M 217.203125 119.847656 "/>
<g style="fill:rgb(100%,0%,0%);fill-opacity:1;">
  <use xlink:href="#glyph0-2" x="217.203125" y="128.510742"/>
</g>
<path style="fill:none;stroke-width:1.2;stroke-linecap:butt;stroke-linejoin:miter;stroke:rgb(0%,0%,0%);stroke-opacity:1;stroke-miterlimit:10;" d="M 233.089844 155.042969 L 230.464844 173.320312 "/>
<path style="fill:none;stroke-width:1.2;stroke-linecap:butt;stroke-linejoin:miter;stroke:rgb(0%,0%,0%);stroke-opacity:1;stroke-miterlimit:10;" d="M 237.128906 157.488281 L 235.027344 172.109375 "/>
<path style="fill:none;stroke-width:1.2;stroke-linecap:butt;stroke-linejoin:miter;stroke:rgb(0%,0%,0%);stroke-opacity:1;stroke-miterlimit:10;" d="M 250.234375 148.179688 L 233.089844 155.042969 "/>
<path style="fill:none;stroke-width:1.2;stroke-linecap:butt;stroke-linejoin:miter;stroke:rgb(0%,0%,0%);stroke-opacity:1;stroke-miterlimit:10;" d="M 230.464844 173.320312 L 244.980469 184.734375 "/>
<path style="fill:none;stroke-width:1.2;stroke-linecap:butt;stroke-linejoin:miter;stroke:rgb(0%,0%,0%);stroke-opacity:1;stroke-miterlimit:10;" d="M 244.980469 184.734375 L 253.550781 181.304688 "/>
<path style="fill:none;stroke-width:1.2;stroke-linecap:butt;stroke-linejoin:miter;stroke:rgb(0%,0%,100%);stroke-opacity:1;stroke-miterlimit:10;" d="M 253.550781 181.304688 L 262.121094 177.871094 "/>
<path style="fill:none;stroke-width:1.2;stroke-linecap:butt;stroke-linejoin:miter;stroke:rgb(0%,0%,0%);stroke-opacity:1;stroke-miterlimit:10;" d="M 245.078125 180.015625 L 251.9375 177.269531 "/>
<path style="fill:none;stroke-width:1.2;stroke-linecap:butt;stroke-linejoin:miter;stroke:rgb(0%,0%,100%);stroke-opacity:1;stroke-miterlimit:10;" d="M 251.9375 177.269531 L 258.792969 174.523438 "/>
<path style="fill:none;stroke-width:1.2;stroke-linecap:butt;stroke-linejoin:miter;stroke:rgb(0%,0%,100%);stroke-opacity:1;stroke-miterlimit:10;" d="M 262.121094 177.871094 L 263.4375 168.730469 "/>
<path style="fill:none;stroke-width:1.2;stroke-linecap:butt;stroke-linejoin:miter;stroke:rgb(0%,0%,0%);stroke-opacity:1;stroke-miterlimit:10;" d="M 263.4375 168.730469 L 264.75 159.59375 "/>
<path style=" stroke:none;fill-rule:nonzero;fill:rgb(100%,100%,100%);fill-opacity:1;" d="M 259.121094 172.371094 L 266.121094 172.371094 L 266.121094 183.371094 L 259.121094 183.371094 Z M 259.121094 172.371094 "/>
<g style="fill:rgb(0%,0%,100%);fill-opacity:1;">
  <use xlink:href="#glyph0-1" x="259.121094" y="181.03418"/>
</g>
<path style="fill:none;stroke-width:1.2;stroke-linecap:butt;stroke-linejoin:miter;stroke:rgb(0%,0%,0%);stroke-opacity:1;stroke-miterlimit:10;" d="M 264.75 159.59375 L 250.234375 148.179688 "/>
<path style="fill:none;stroke-width:1.2;stroke-linecap:butt;stroke-linejoin:miter;stroke:rgb(0%,0%,0%);stroke-opacity:1;stroke-miterlimit:10;" d="M 260.613281 161.867188 L 249 152.734375 "/>
<path style="fill:none;stroke-width:1.2;stroke-linecap:butt;stroke-linejoin:miter;stroke:rgb(0%,0%,0%);stroke-opacity:1;stroke-miterlimit:10;" d="M 115.714844 184.8125 L 101.195312 173.398438 "/>
<path style="fill:none;stroke-width:1.2;stroke-linecap:butt;stroke-linejoin:miter;stroke:rgb(0%,0%,0%);stroke-opacity:1;stroke-miterlimit:10;" d="M 101.195312 173.398438 L 103.824219 155.117188 "/>
<path style="fill:none;stroke-width:1.2;stroke-linecap:butt;stroke-linejoin:miter;stroke:rgb(0%,0%,0%);stroke-opacity:1;stroke-miterlimit:10;" d="M 97.160156 170.949219 L 99.261719 156.328125 "/>
<path style="fill:none;stroke-width:1.2;stroke-linecap:butt;stroke-linejoin:miter;stroke:rgb(0%,0%,0%);stroke-opacity:1;stroke-miterlimit:10;" d="M 84.054688 180.261719 L 101.195312 173.398438 "/>
<path style="fill:none;stroke-width:1.2;stroke-linecap:butt;stroke-linejoin:miter;stroke:rgb(0%,0%,0%);stroke-opacity:1;stroke-miterlimit:10;" d="M 103.824219 155.117188 L 89.308594 143.703125 "/>
<path style="fill:none;stroke-width:1.2;stroke-linecap:butt;stroke-linejoin:miter;stroke:rgb(0%,0%,0%);stroke-opacity:1;stroke-miterlimit:10;" d="M 89.308594 143.703125 L 72.164062 150.566406 "/>
<path style="fill:none;stroke-width:1.2;stroke-linecap:butt;stroke-linejoin:miter;stroke:rgb(0%,0%,0%);stroke-opacity:1;stroke-miterlimit:10;" d="M 89.207031 148.421875 L 75.492188 153.914062 "/>
<path style="fill:none;stroke-width:1.2;stroke-linecap:butt;stroke-linejoin:miter;stroke:rgb(0%,0%,0%);stroke-opacity:1;stroke-miterlimit:10;" d="M 89.308594 143.703125 L 91.933594 125.425781 "/>
<path style="fill:none;stroke-width:1.2;stroke-linecap:butt;stroke-linejoin:miter;stroke:rgb(0%,0%,0%);stroke-opacity:1;stroke-miterlimit:10;" d="M 72.164062 150.566406 L 69.535156 168.847656 "/>
<path style="fill:none;stroke-width:1.2;stroke-linecap:butt;stroke-linejoin:miter;stroke:rgb(0%,0%,0%);stroke-opacity:1;stroke-miterlimit:10;" d="M 69.535156 168.847656 L 84.054688 180.261719 "/>
<path style="fill:none;stroke-width:1.2;stroke-linecap:butt;stroke-linejoin:miter;stroke:rgb(0%,0%,0%);stroke-opacity:1;stroke-miterlimit:10;" d="M 73.675781 166.570312 L 85.289062 175.703125 "/>
<path style="fill:none;stroke-width:1.2;stroke-linecap:butt;stroke-linejoin:miter;stroke:rgb(0%,0%,0%);stroke-opacity:1;stroke-miterlimit:10;" d="M 69.535156 168.847656 L 52.394531 175.710938 "/>
<path style="fill:none;stroke-width:1.2;stroke-linecap:butt;stroke-linejoin:miter;stroke:rgb(0%,0%,0%);stroke-opacity:1;stroke-miterlimit:10;" d="M 52.394531 175.710938 L 43.820312 179.140625 "/>
<path style="fill:none;stroke-width:1.2;stroke-linecap:butt;stroke-linejoin:miter;stroke:rgb(20%,80%,80%);stroke-opacity:1;stroke-miterlimit:10;" d="M 43.820312 179.140625 L 35.25 182.574219 "/>
<path style="fill:none;stroke-width:1.2;stroke-linecap:butt;stroke-linejoin:miter;stroke:rgb(0%,0%,0%);stroke-opacity:1;stroke-miterlimit:10;" d="M 52.394531 175.710938 L 48.960938 167.136719 "/>
<path style="fill:none;stroke-width:1.2;stroke-linecap:butt;stroke-linejoin:miter;stroke:rgb(20%,80%,80%);stroke-opacity:1;stroke-miterlimit:10;" d="M 48.960938 167.136719 L 45.53125 158.566406 "/>
<path style="fill:none;stroke-width:1.2;stroke-linecap:butt;stroke-linejoin:miter;stroke:rgb(0%,0%,0%);stroke-opacity:1;stroke-miterlimit:10;" d="M 52.394531 175.710938 L 55.824219 184.28125 "/>
<path style="fill:none;stroke-width:1.2;stroke-linecap:butt;stroke-linejoin:miter;stroke:rgb(20%,80%,80%);stroke-opacity:1;stroke-miterlimit:10;" d="M 55.824219 184.28125 L 59.257812 192.855469 "/>
<path style=" stroke:none;fill-rule:nonzero;fill:rgb(100%,100%,100%);fill-opacity:1;" d="M 29.25 177.074219 L 35.25 177.074219 L 35.25 188.074219 L 29.25 188.074219 Z M 29.25 177.074219 "/>
<g style="fill:rgb(20%,80%,80%);fill-opacity:1;">
  <use xlink:href="#glyph0-3" x="29.25" y="185.737305"/>
</g>
<path style=" stroke:none;fill-rule:nonzero;fill:rgb(100%,100%,100%);fill-opacity:1;" d="M 39.53125 153.066406 L 45.53125 153.066406 L 45.53125 164.066406 L 39.53125 164.066406 Z M 39.53125 153.066406 "/>
<g style="fill:rgb(20%,80%,80%);fill-opacity:1;">
  <use xlink:href="#glyph0-3" x="39.53125" y="161.729492"/>
</g>
<path style=" stroke:none;fill-rule:nonzero;fill:rgb(100%,100%,100%);fill-opacity:1;" d="M 56.257812 187.355469 L 62.257812 187.355469 L 62.257812 198.355469 L 56.257812 198.355469 Z M 56.257812 187.355469 "/>
<g style="fill:rgb(20%,80%,80%);fill-opacity:1;">
  <use xlink:href="#glyph0-3" x="56.257812" y="196.018555"/>
</g>
<path style="fill:none;stroke-width:1.2;stroke-linecap:butt;stroke-linejoin:miter;stroke:rgb(0%,0%,0%);stroke-opacity:1;stroke-miterlimit:10;" d="M 91.933594 125.425781 L 93.25 116.285156 "/>
<path style="fill:none;stroke-width:1.2;stroke-linecap:butt;stroke-linejoin:miter;stroke:rgb(20%,80%,80%);stroke-opacity:1;stroke-miterlimit:10;" d="M 93.25 116.285156 L 94.5625 107.144531 "/>
<path style="fill:none;stroke-width:1.2;stroke-linecap:butt;stroke-linejoin:miter;stroke:rgb(0%,0%,0%);stroke-opacity:1;stroke-miterlimit:10;" d="M 91.933594 125.425781 L 101.074219 126.738281 "/>
<path style="fill:none;stroke-width:1.2;stroke-linecap:butt;stroke-linejoin:miter;stroke:rgb(20%,80%,80%);stroke-opacity:1;stroke-miterlimit:10;" d="M 101.074219 126.738281 L 110.214844 128.050781 "/>
<path style="fill:none;stroke-width:1.2;stroke-linecap:butt;stroke-linejoin:miter;stroke:rgb(0%,0%,0%);stroke-opacity:1;stroke-miterlimit:10;" d="M 91.933594 125.425781 L 82.796875 124.109375 "/>
<path style="fill:none;stroke-width:1.2;stroke-linecap:butt;stroke-linejoin:miter;stroke:rgb(20%,80%,80%);stroke-opacity:1;stroke-miterlimit:10;" d="M 82.796875 124.109375 L 73.65625 122.796875 "/>
<path style=" stroke:none;fill-rule:nonzero;fill:rgb(100%,100%,100%);fill-opacity:1;" d="M 91.5625 101.644531 L 97.5625 101.644531 L 97.5625 112.644531 L 91.5625 112.644531 Z M 91.5625 101.644531 "/>
<g style="fill:rgb(20%,80%,80%);fill-opacity:1;">
  <use xlink:href="#glyph0-3" x="91.5625" y="110.307617"/>
</g>
<path style=" stroke:none;fill-rule:nonzero;fill:rgb(100%,100%,100%);fill-opacity:1;" d="M 107.214844 122.550781 L 113.214844 122.550781 L 113.214844 133.550781 L 107.214844 133.550781 Z M 107.214844 122.550781 "/>
<g style="fill:rgb(20%,80%,80%);fill-opacity:1;">
  <use xlink:href="#glyph0-3" x="107.214844" y="131.213867"/>
</g>
<path style=" stroke:none;fill-rule:nonzero;fill:rgb(100%,100%,100%);fill-opacity:1;" d="M 67.65625 117.296875 L 73.65625 117.296875 L 73.65625 128.296875 L 67.65625 128.296875 Z M 67.65625 117.296875 "/>
<g style="fill:rgb(20%,80%,80%);fill-opacity:1;">
  <use xlink:href="#glyph0-3" x="67.65625" y="125.959961"/>
</g>
</g>
</svg>

<svg xmlns="http://www.w3.org/2000/svg" xmlns:xlink="http://www.w3.org/1999/xlink" width="300pt" height="300pt" viewBox="0 0 300 300"><defs><symbol overflow="visible"><path d="M.453 1.594v-7.938h4.5v7.938zm.5-.5h3.5v-6.938h-3.5zm0 0"/></symbol><symbol overflow="visible" id="a"><path d="M.89-6.563H2.08l2.906 5.485v-5.484h.86V0H4.656L1.75-5.484V0H.89zm0 0"/></symbol><symbol overflow="visible" id="b"><path d="M3.547-5.953c-.65 0-1.164.242-1.547.72-.375.48-.563 1.13-.563 1.952 0 .835.188 1.49.563 1.967.383.48.898.72 1.547.72.644 0 1.156-.24 1.53-.72.376-.476.564-1.132.564-1.968 0-.822-.187-1.474-.562-1.954-.375-.477-.887-.72-1.53-.72zm0-.734c.914 0 1.648.312 2.203.937.55.617.828 1.438.828 2.47 0 1.042-.277 1.87-.828 2.483-.555.617-1.29.922-2.203.922-.93 0-1.668-.305-2.22-.922C.774-1.41.5-2.237.5-3.28c0-1.033.273-1.853.828-2.47.55-.625 1.29-.938 2.22-.938zm0 0"/></symbol><symbol overflow="visible" id="c"><path d="M.89-6.563h3.766v.75h-2.89v1.938h2.61v.734h-2.61V0H.89zm0 0"/></symbol></defs><g><path fill="#fff" d="M0 0h300v300H0z"/><path d="M164.516 182.5l-17.145 6.863M167.145 164.22l-2.63 18.28M147.37 189.363l-7.257-5.707" stroke-width="1.2" stroke="#000" stroke-miterlimit="10" fill="none"/><path d="M140.113 183.656l-7.258-5.707M132.855 177.95l1.317-9.14" stroke-width="1.2" stroke="#00f" stroke-miterlimit="10" fill="none"/><path d="M134.172 168.81l1.312-9.142" stroke-width="1.2" stroke="#000" stroke-miterlimit="10" fill="none"/><path d="M132.855 177.95l-8.57 3.43" stroke-width="1.2" stroke="#00f" stroke-miterlimit="10" fill="none"/><path d="M124.285 181.38l-8.57 3.433" stroke-width="1.2" stroke="#000" stroke-miterlimit="10" fill="none"/><path d="M129.855 172.45h7v11h-7zm0 0" fill="#fff"/><use xlink:href="#a" x="129.855" y="181.112" fill="#00f"/><path d="M135.484 159.668l17.145-6.863M152.63 152.805l14.515 11.414M167.145 164.22l14.515 11.413M169.77 145.94l-2.625 18.28M181.66 175.633l17.145-6.863M198.805 168.77l1.312-9.137" stroke-width="1.2" stroke="#000" stroke-miterlimit="10" fill="none"/><path d="M200.117 159.633l1.313-9.14M201.43 150.492l-7.258-5.707" stroke-width="1.2" stroke="#00f" stroke-miterlimit="10" fill="none"/><path d="M194.172 144.785l-7.258-5.707" stroke-width="1.2" stroke="#000" stroke-miterlimit="10" fill="none"/><path d="M201.43 150.492l8.574-3.433" stroke-width="1.2" stroke="#00f" stroke-miterlimit="10" fill="none"/><path d="M210.004 147.06l8.57-3.43" stroke-width="1.2" stroke="#000" stroke-miterlimit="10" fill="none"/><path d="M198.43 144.992h7v11h-7zm0 0" fill="#fff"/><use xlink:href="#a" x="198.43" y="153.655" fill="#00f"/><path d="M186.914 139.078l-17.144 6.863M220.723 143.938l1.316-9.14" stroke-width="1.2" stroke="#000" stroke-miterlimit="10" fill="none"/><path d="M222.04 134.797l1.312-9.14" stroke-width="1.2" stroke="#f00" stroke-miterlimit="10" fill="none"/><path d="M216.422 143.32l1.316-9.14" stroke-width="1.2" stroke="#000" stroke-miterlimit="10" fill="none"/><path d="M217.738 134.18l1.313-9.14" stroke-width="1.2" stroke="#f00" stroke-miterlimit="10" fill="none"/><path d="M218.574 143.63l14.516 11.413" stroke-width="1.2" stroke="#000" stroke-miterlimit="10" fill="none"/><path d="M217.203 119.848h8v11h-8zm0 0" fill="#fff"/><use xlink:href="#b" x="217.203" y="128.511" fill="#f00"/><path d="M233.09 155.043l-2.625 18.277M237.13 157.488l-2.103 14.62M250.234 148.18l-17.144 6.863M230.465 173.32l14.515 11.414M244.98 184.734l8.57-3.43" stroke-width="1.2" stroke="#000" stroke-miterlimit="10" fill="none"/><path d="M253.55 181.305l8.57-3.434" stroke-width="1.2" stroke="#00f" stroke-miterlimit="10" fill="none"/><path d="M245.078 180.016l6.86-2.746" stroke-width="1.2" stroke="#000" stroke-miterlimit="10" fill="none"/><path d="M251.938 177.27l6.855-2.747M262.12 177.87l1.317-9.14" stroke-width="1.2" stroke="#00f" stroke-miterlimit="10" fill="none"/><path d="M263.438 168.73l1.312-9.136" stroke-width="1.2" stroke="#000" stroke-miterlimit="10" fill="none"/><path d="M259.12 172.37h7v11h-7zm0 0" fill="#fff"/><use xlink:href="#a" x="259.121" y="181.034" fill="#00f"/><path d="M264.75 159.594l-14.516-11.414M260.613 161.867L249 152.734M115.715 184.813l-14.52-11.415M101.195 173.398l2.63-18.28M97.16 170.95l2.102-14.622M84.055 180.262l17.14-6.864M103.824 155.117L89.31 143.703M89.31 143.703l-17.146 6.863M89.207 148.422l-13.715 5.492M89.31 143.703l2.624-18.277M72.164 150.566l-2.63 18.282M69.535 168.848l14.52 11.414M73.676 166.57l11.613 9.133M69.535 168.848l-17.14 6.863M52.395 175.71l-8.575 3.43" stroke-width="1.2" stroke="#000" stroke-miterlimit="10" fill="none"/><path d="M43.82 179.14l-8.57 3.434" stroke-width="1.2" stroke="#3cc" stroke-miterlimit="10" fill="none"/><path d="M52.395 175.71l-3.434-8.573" stroke-width="1.2" stroke="#000" stroke-miterlimit="10" fill="none"/><path d="M48.96 167.137l-3.43-8.57" stroke-width="1.2" stroke="#3cc" stroke-miterlimit="10" fill="none"/><path d="M52.395 175.71l3.43 8.57" stroke-width="1.2" stroke="#000" stroke-miterlimit="10" fill="none"/><path d="M55.824 184.28l3.434 8.575" stroke-width="1.2" stroke="#3cc" stroke-miterlimit="10" fill="none"/><path d="M29.25 177.074h6v11h-6zm0 0" fill="#fff"/><use xlink:href="#c" x="29.25" y="185.737" fill="#3cc"/><path d="M39.53 153.066h6v11h-6zm0 0" fill="#fff"/><use xlink:href="#c" x="39.531" y="161.729" fill="#3cc"/><path d="M56.258 187.355h6v11h-6zm0 0" fill="#fff"/><use xlink:href="#c" x="56.258" y="196.019" fill="#3cc"/><path d="M91.934 125.426l1.316-9.14" stroke-width="1.2" stroke="#000" stroke-miterlimit="10" fill="none"/><path d="M93.25 116.285l1.313-9.14" stroke-width="1.2" stroke="#3cc" stroke-miterlimit="10" fill="none"/><path d="M91.934 125.426l9.14 1.312" stroke-width="1.2" stroke="#000" stroke-miterlimit="10" fill="none"/><path d="M101.074 126.738l9.14 1.313" stroke-width="1.2" stroke="#3cc" stroke-miterlimit="10" fill="none"/><path d="M91.934 125.426l-9.137-1.317" stroke-width="1.2" stroke="#000" stroke-miterlimit="10" fill="none"/><path d="M82.797 124.11l-9.14-1.313" stroke-width="1.2" stroke="#3cc" stroke-miterlimit="10" fill="none"/><path d="M91.563 101.645h6v11h-6zm0 0" fill="#fff"/><use xlink:href="#c" x="91.563" y="110.308" fill="#3cc"/><path d="M107.215 122.55h6v11h-6zm0 0" fill="#fff"/><use xlink:href="#c" x="107.215" y="131.214" fill="#3cc"/><path d="M67.656 117.297h6v11h-6zm0 0" fill="#fff"/><use xlink:href="#c" x="67.656" y="125.96" fill="#3cc"/></g></svg>
